X: 15
T:Musical Priest
M:4/4
L:1/8
R:Reel
K:D Maj
|:BA|FBBA BABd|cBAf ecBA|FBBA BABd|cBAFB2:| |:Bc|d2dc dfed|(3cBA eA fA
eA
|dcBc dbaf|edcdB2:| |:Bc|dB (3BBB bafb|afec Acec|dB (3BBB bafb|afecB2:
|
